X:1
T:Das vierde hält schöne
T:André Vierendeels
T:Melody by Georg Vogler (1625) (Soprano voice)
T:Source : Catechismus---Würzburg---J.Volmari---1652. Editor : André Vierendeels (12/10/17).
T:Notes : Orignal clef : C1, other voices supplied editorially Original note values have been halved Text Middle German 
T:Das vierde hält schöne
T:©
T:©
C:André Vierendeels
Z:©
%%score [ 1 2 3 ]
L:1/8
Q:1/4=120
M:2/2
K:C
V:1 treble nm="Alto" snm="A"
V:2 treble-8 nm="Tenor" snm="T"
V:3 bass nm="Bass" snm="B"
V:1
"^1)" G4 G2 A2 | B2 c2 B2 A2 | G4 z4 | E4 A2 A2 | F4 G4 | G2 F2 G4 | z4 E4 | F2 G2 C2 F2 | E4 D4 | %9
w: Das vierd' hält|schö- ne Kin- der-|sehr,|dasz man Vat-|rer und|Mut- ter ehr:|auch|sich nach ih- ren|Wil- len|
w: Dann so das|Kind mit Werck und|Wort|ver- fah- ren|würd an-|de- rer Orth,|so|seh es zu, dasz|nicht der|
 C4 z4 | G4 F2 E2 | D2 C2 D4 | D4 E4 | z4 E4 | C2 D2 E2 G2 | F2 E2 D4 | z4 G4 | F2 E2 D4 | %18
w: neyg,|ihn Re- ve-|rentz und Ehr|er- zeig:|den-|sel- bi- gen mit|Rath und That|be-|hülff- lich sey|
w: Rab|ihm bey- de|Au- gen raus-|ser grab?|von|Gott wurd es ver-|fluch- tet seyn,|nicht|werth, dasz es|
 E4 C2 D2 | C8 |] %20
w: frü- he und|spät.|
w: die Sonn be-|schein.|
V:2
"^2)""^1)" G4 c2 A2 | d2 e2 d2 A2 | d4 z4 | c4 f2 e2 | c4 e4 | d2 d2 B4 | z4 G4 | A2 d2 G2 A2 | %8
w: Das vierd' hält|schö- ne Kin- der-|sehr,|dasz man Vat-|ter und|Mut- ter ehr:|auch|sich nach ih- ren|
w: All- hie sein|G'wis- sen hoch be-|schwehrt,|der sei- ner|El- tern|Todt be- gehrt,|mit|ra- wen Wor- ten|
 c4 B4 | c4 z4 | d4 A2 c2 | B2 G2 B4 | A4 G4 | z4 B4 | G2 G2 c2 B2 | A2 c2 B4 | z4 e4 | A2 G2 A4 | %18
w: Wil- len|neyg,|ihm Re- ve-|rentz und Ehr|er- zeig:|den-|sel- bi- gen mit|Rath und That|be-|hülff- lich sey|
w: sie an-|schnarzt,|nach- besstzt und|wi- der- bel-|let hart.|Der|sie be- trübt, stöst,|flucht und schlägt,|ihr|Wahr- nung, Straff|
 E4 F2 G2 | E8 |] %20
w: frü- he und|spät.|
w: nicht ü- ber-|trägt.|
V:3
"^3)""^1)""^4)" G,4 E,2 D,2 | G,,2 C,2 G,,2 D,2 | G,4 z4 | C,4 D,2 A,,2 | F,,4 C,4 | %5
w: Das vierd' hält|schö- ne Kin- der-|sehr,|dasz man Vat-|ter und|
w: Die Ü- ber-|tret- ter disz Ge-|bott|zeit- lich und|e- wig|
 G,,2 D,2 G,,4 | z4 C,4 | D,2 G,,2 C,2 D,2 | C,4 G,,4 | C,4 z4 | B,,4 D,2 C,2 | G,2 C,2 G,,4 | %12
w: Mut- ter ehr:|auch|sich nach ih- ren|Wil- len|neyg,|ihm Re- ve-|rentz und Ehr|
w: straf- fet Gott,|der|un- ge- hor- sam|Ab- so-|lon,|Da- vid desz|Kö- nigs schö-|
 D,4 C,4 | z4 E,4 | C,2 G,,2 A,,2 G,,2 | D,2 C,2 G,,4 | z4 C,4 | F,,2 C,2 D,4 | C,4 A,,2 G,,2 | %19
w: er- zeig:|den-|sel- bi- gen mit|Rath und Tath|be-|Hülff- lich sey|frü- he und|
w: ner Sohn,|an|ei- nem Eych- baum-|han- gen blieb,|Jo-|ab drey Lan-|tzen durch ihn|
 C,8 |] %20
w: spät.|
w: trieb.|

